bandage.svg

<svg fill="currentColor" viewBox="0 0 24 24"><path d="m17.73 12 3.98-3.96c.39-.39.39-1.04 0-1.41l-4.34-4.34c-.37-.39-1.02-.39-1.41 0L12 6.27 8 2.29a1.001 1.001 0 0 0-1.41 0L2.25 6.63c-.39.37-.39 1.02 0 1.41L6.23 12l-3.98 4c-.39.39-.39 1 0 1.41l4.34 4.34c.41.39 1.02.39 1.41 0l4-3.98 3.96 3.98c.2.2.45.29.71.29s.51-.1.71-.29l4.34-4.34c.39-.41.39-1.02 0-1.41zM12 9a1 1 0 0 1 1 1 1 1 0 0 1-1 1 1 1 0 0 1-1-1 1 1 0 0 1 1-1m-4.71 1.96L3.66 7.34l3.63-3.63 3.62 3.62zM10 13a1 1 0 0 1-1-1 1 1 0 0 1 1-1 1 1 0 0 1 1 1 1 1 0 0 1-1 1m2 2a1 1 0 0 1-1-1 1 1 0 0 1 1-1 1 1 0 0 1 1 1 1 1 0 0 1-1 1m2-4a1 1 0 0 1 1 1 1 1 0 0 1-1 1 1 1 0 0 1-1-1 1 1 0 0 1 1-1m2.66 9.34-3.63-3.62 3.63-3.63 3.62 3.62z"/></svg>

<svg  viewBox="0 0 24 24" fill="currentColor"><path  d="M17.73,12L21.71,8.04C22.1,7.65 22.1,7 21.71,6.63L17.37,2.29C17,1.9 16.35,1.9 15.96,2.29L12,6.27L8,2.29C7.8,2.1 7.55,2 7.29,2C7.04,2 6.78,2.1 6.59,2.29L2.25,6.63C1.86,7 1.86,7.65 2.25,8.04L6.23,12L2.25,16C1.86,16.39 1.86,17 2.25,17.41L6.59,21.75C7,22.14 7.61,22.14 8,21.75L12,17.77L15.96,21.75C16.16,21.95 16.41,22.04 16.67,22.04C16.93,22.04 17.18,21.94 17.38,21.75L21.72,17.41C22.11,17 22.11,16.39 21.72,16L17.73,12M12,9A1,1 0 0,1 13,10A1,1 0 0,1 12,11A1,1 0 0,1 11,10A1,1 0 0,1 12,9M7.29,10.96L3.66,7.34L7.29,3.71L10.91,7.33L7.29,10.96M10,13A1,1 0 0,1 9,12A1,1 0 0,1 10,11A1,1 0 0,1 11,12A1,1 0 0,1 10,13M12,15A1,1 0 0,1 11,14A1,1 0 0,1 12,13A1,1 0 0,1 13,14A1,1 0 0,1 12,15M14,11A1,1 0 0,1 15,12A1,1 0 0,1 14,13A1,1 0 0,1 13,12A1,1 0 0,1 14,11M16.66,20.34L13.03,16.72L16.66,13.09L20.28,16.71L16.66,20.34Z"/></svg>
